svgs/light/messages.svg

<svg xmlns="http://www.w3.org/2000/svg" viewBox="0 0 640 512"><!--! Font Awesome Pro 6.6.0 by @fontawesome - https://fontawesome.com License - https://fontawesome.com/license (Commercial License) Copyright 2024 Fonticons, Inc. --><path d="M202.7 288L352 288c17.7 0 32-14.3 32-32l0-192c0-17.7-14.3-32-32-32L64 32C46.3 32 32 46.3 32 64l0 192c0 17.7 14.3 32 32 32l32 0c17.7 0 32 14.3 32 32l0 16 55.5-41.6c5.5-4.2 12.3-6.4 19.2-6.4zM352 320l-149.3 0-81.1 60.8c-4.8 3.6-11.3 4.2-16.8 1.5s-8.8-8.2-8.8-14.3l0-16 0-32-32 0c-35.3 0-64-28.7-64-64L0 64C0 28.7 28.7 0 64 0L352 0c35.3 0 64 28.7 64 64l0 192c0 35.3-28.7 64-64 64zM320 448c-35.3 0-64-28.7-64-64l0-32 32 0 0 32c0 17.7 14.3 32 32 32l117.3 0c6.9 0 13.7 2.2 19.2 6.4L512 464l0-16c0-17.7 14.3-32 32-32l32 0c17.7 0 32-14.3 32-32l0-192c0-17.7-14.3-32-32-32l-128 0 0-32 128 0c35.3 0 64 28.7 64 64l0 192c0 35.3-28.7 64-64 64l-32 0 0 32 0 16c0 6.1-3.4 11.6-8.8 14.3s-11.9 2.1-16.8-1.5L437.3 448 320 448z"/></svg>

<svg xmlns="http://www.w3.org/2000/svg" viewBox="0 0 640 512"><!--! Font Awesome Pro 6.4.0 by @fontawesome - https://fontawesome.com License - https://fontawesome.com/license (Commercial License) Copyright 2023 Fonticons, Inc. --><path d="M202.7 288H352c17.7 0 32-14.3 32-32V64c0-17.7-14.3-32-32-32H64C46.3 32 32 46.3 32 64V256c0 17.7 14.3 32 32 32H96c17.7 0 32 14.3 32 32v16l55.5-41.6c5.5-4.2 12.3-6.4 19.2-6.4zM352 320H202.7l-81.1 60.8c-4.8 3.6-11.3 4.2-16.8 1.5s-8.8-8.2-8.8-14.3V352 320H64c-35.3 0-64-28.7-64-64V64C0 28.7 28.7 0 64 0H352c35.3 0 64 28.7 64 64V256c0 35.3-28.7 64-64 64zM320 448c-35.3 0-64-28.7-64-64V352h32v32c0 17.7 14.3 32 32 32H437.3c6.9 0 13.7 2.2 19.2 6.4L512 464V448c0-17.7 14.3-32 32-32h32c17.7 0 32-14.3 32-32V192c0-17.7-14.3-32-32-32H448V128H576c35.3 0 64 28.7 64 64V384c0 35.3-28.7 64-64 64H544v32 16c0 6.1-3.4 11.6-8.8 14.3s-11.9 2.1-16.8-1.5L437.3 448H320z"/></svg>
